!!!OTL: Sixt as da, da kimmt er, klaana Schrittla nimmt er
!!!ARE: Europa, Mitteleuropa, Deutschland, Ober - Franken, Lindenhardt
!!!SCT: V0003F
!!!YEM: Copyright 1995, estate of Helmut Schaffrath.
**kern
*ICvox
*Ivox
*M2/4
*k[f#c#]
*D:
{8A
8A
8B
8A
=1
4c#
4c#}
=2
{8A
8A
8B
8A
=3
4d
4d}
=4
{8e
8e
8e
8d
=5
8c#
8B
4B}
=6
{8B
8B
8c#
8B
=7
8B
8A
4A}
==
!!!AGN: Geselligkeits - Lied, Scherz
!!!ONB: ESAC (Essen Associative Code) Database: VARIANT
!!!AMT: simple duple
!!!AIN: vox
!!!EED: Helmut Schaffrath
!!!EEV: 1.0
*-
